X:1
T:Christe eleison
T:Christe eleison
T:Georg Reiss (1861-1914)
C:Georg Reiss (1861-1914)
%%score [ 1 2 3 4 ]
L:1/8
Q:1/4=80
M:4/4
K:C
V:1 treble nm="Soprano" snm="S."
V:2 treble nm="Alto" snm="A."
V:3 treble-8 nm="Tenor" snm="T."
V:4 bass nm="Bass" snm="B."
V:1
"^Adagio"!p! A2 d4 c2 | (B2 e2 A2 dc | B3 c/B/ A2 d2- | d2 c4 B2- | B2 A2 B2) B2 | c2 A2 (G2 A2 | %6
w: Chri- ste e|le- * * * *|||* * * i-|son, e- le- *|
 G4 F4 | G4 A4 | G2 c4) B2 | c4 z4 | z8 | E2 G4 F2 | (E2 A2 D2 GF | EF G2 E2 A2- | A2 G4) F2 | %15
w: ||* * i-|son.||Chri- ste e-|le- * * * *||* * i-|
 E2 D2 (E2 F2 | G2 E2 A2 B2 | c2 BA ^G2 A2 | B2) B2 A4 | z8 | A2 d4 c2 | (B2 e2 A2 d2- | %22
w: son, e- le- *|||* i- son.||Chri- ste e-|le- * * *|
 d2 c4) B2 | c2 (BA) (G2 A2 | B4 c2) A2 | G2 c2 (d2 B2 |"^rit." e2 A2 B4- | B2 A4) ^G2 | %28
w: * * i-|son, e- * le- *|* * i-|son, e- le- *||* * i-|
 !fermata!A8 |] %29
w: son.|
V:2
 z8 | z8 |!p! E2 G4 F2 | (E2 A2 D2 GF | E2 FE D2 G2- | G2 F2 E4 | D2 C4 F2- | F2) E2 D2 D2 | %8
w: ||Chri- ste e-|le- * * * *||||* i- son, e-|
 (E4 A2 G2- | G2 AG F2 ED | EDCB,) C4 | B,4 z4 | z8 | A,2 D4 C2 | (B,2 E2 A,2 DC | B,4 C2) A,2 | %16
w: le- * *||* * * * i-|son.||Chri- ste e|le- * * * *|* * i-|
 C4 F2 D2 | (C2 F2 E4 | D2 E2 C2 FE | D4) ^C4 | D4 z4 | E2 G4 F2 | (E2 A2 D2 GF | E2 F2 E4 | %24
w: son, e- *|le- * *||* i-|son.|Chri- ste e-|le- * * * *||
 G4 E2) F2 | G2 E2 (A2 ^G2 |"^rit." A4- A^G^FE | E2 =F4) E2 | !fermata!E8 |] %29
w: * * i-|son, e- le- *||* * i-|son.|
V:3
 z8 | z8 | z8 | z8 | z8 |!p! A2 d4 c2 | (B2 e2 A2 dc | B4 A4 | c4 f2 d2 | c6) B2 | (cBA) G (A4- | %11
w: |||||Chri- ste e-|le- * * * *|||* i-|son, _ _ e- le-|
 A2 G2 A2 B2 | c6) B2 | c2 z2 z4 | z8 | E2 G4 F2 | (E2 A2 D2 GF | E2 B4 A2- | A2 ^G2 A4- | %19
w: |* i-|son.||Chri- ste e-|le- * * * *|||
 A2 ^G2 A2) =G2 | F6 z2 | z8 | z8 | A2 d4 c2 | (B2 e2 A2) c2 | c2 c2 (f2 e2- |"^rit." e2 c2 e3 d | %27
w: * * * i-|son.|||Chri- ste e-|le- * * i-|son, e- le- *||
 c4) B4 | !fermata!^c8 |] %29
w: * i-|son.|
V:4
 z8 | z8 | z8 | z8 | z8 | z8 | z8 |!p! E,2 G,4 F,2 | (E,2 A,2 D,2 G,F, | E,2 F,E, D,2) G,2 | %10
w: |||||||Chri- ste e-|le- * * * *|* * * * i-|
 C,4 (A,,B,,C,D,) | (E,4 C,2 D,2 | E,2) F,2 G,2 G,,2 | (A,,2 B,,2 C,2 F,2 | D,2 E,2 C,2 D,2 | %15
w: son, e- * * *|le- * *|* i- son, e-|le- * * *||
 G,2) G,,2 C,2 z2 | z8 | A,,2 D,4 C,2 | (B,,2 E,2 A,,2 D,C, | B,,4) A,,4 | D,6 z2 | z8 | z8 | z8 | %24
w: * i- son.||Chri- ste e-|le- * * * *|* i-|son.||||
 E,2 G,4 F,2 | (E,2 A,2 D,2 E,D, |"^rit." C,2 F,2 E,2 ^F,^G, | A,2 =F,E, D,2) E,2 | %28
w: Chri- ste e-|le- * * * *||* * * * i-|
 !fermata![A,,A,]8 |] %29
w: son.|

